X: 21692
T: THE PRIDE OF THE NORTH VALSE 2
C: Composed by Wm. Findlay
%: Bowing and Fingering arranged by W.B. Laybourn
R: waltz
B: K\"ohler's Violin Repository, v.2, 1885 p.169 #2
F: http://www.archive.org/details/klersviolinrepos02rugg
Z: 2012 John Chambers <jc:trillian.mit.edu>
M: 3/4
L: 1/8
K: D
uA,2 |\
(D4F2) | (A4d2) | (f4a2) | g6 |\
g2f2=f2 | e2B2c2 | e2d2B2 | (A4F2) |
(D4F2) | (A4d2) | (f4a2) | g6 |\
g2f2=f2 | e2B2c2 | (.d3.d)d2 | d2z2 :|
|: uA2 |\
b4a2 | (A2dfba) | (g4B2) | (B4d2) |\
c2B2c2 | A2d2f2 | (e4d2) | (A4d2) |
(b4a2) | (A2dfba) | (g4B2) | (B4d2) |\
(c2A2f2) | (g2"_>"f3e) | d6- | d2z2 :|

%%sep 2 1 500

